packages/icons/svg/24/Manga.svg

<svg width="24" height="24" viewBox="0 0 24 24" fill="none" xmlns="http://www.w3.org/2000/svg">
<path fill-rule="evenodd" clip-rule="evenodd" d="M20 6C20 4.34315 18.6569 3 17 3L7 3C5.34315 3 4 4.34315 4 6L4 18C4 19.6569 5.34314 21 7 21H17C18.6568 21 20 19.6569 20 18V6ZM17 5C17.5523 5 18 5.44772 18 6V11H14V5L17 5ZM13 5H7C6.44772 5 6 5.44772 6 6L6 11H13V5ZM6 12L6 18C6 18.5523 6.44771 19 7 19H9V12H6ZM17 19H10V12H18L18 18C18 18.5523 17.5523 19 17 19Z" fill="#858585"/>
</svg>

<svg width="24" height="24" fill="none" xmlns="http://www.w3.org/2000/svg" viewBox="0 0 24 24"><path fill-rule="evenodd" clip-rule="evenodd" d="M20 6a3 3 0 00-3-3H7a3 3 0 00-3 3v12a3 3 0 003 3h10a3 3 0 003-3V6zm-3-1a1 1 0 011 1v5h-4V5h3zm-4 0H7a1 1 0 00-1 1v5h7V5zm-7 7v6a1 1 0 001 1h2v-7H6zm11 7h-7v-7h8v6a1 1 0 01-1 1z" fill="currentColor"></path></svg>
